X: 031
T: Miss Jessy Dewar's Favourite
C: by John Pringle
B: John Pringle "Collection of Reels Strathspeys & Jigs", 1801 p.3#1
Z: 2011 John Chambers <jc:trillian.mit.edu>
Q: "Slow"
R: jig, air
M: 6/8
L: 1/8
K: G
V: 1
|: {DE}~F>ED {D}CB,A, | GAB ~A3 | dAF T(B/A/)(B/c/).d | A/d/c/B/A/G/ ~F3 | .F.G.A .B.c.d |
fdc TB>cd | dAF (B/d/)c/B/A | AdF D3 :: (CDE) G/F/~E/D/A | (d/c/)d/f/B/d/ c/B/A/G/F |
A/f/d/c/B/A/ ^G/e/d/c/B/A/ | ~B/A/B/d/c/e/ AGF | d/c/B/A/G/F/ BEG | F~A,C D3 :|
V: 2 clef=bass middle=d
|: def g3 | b2g fad' | f2d g3 | a2A dfa | def gab |
d'2f g3 | f2d g2z | a2A d3 :: A3 d3 | f2^g ac'd' |
d2^d e2f | g2a d3 | f2d g2e | a2A d3 :|

%%sep 2 1 500

